assets/logos/workplace.svg

<svg width="80" height="80" viewBox="0 0 80 80" fill="none" xmlns="http://www.w3.org/2000/svg">
<path fill-rule="evenodd" clip-rule="evenodd" d="M22.6819 66.9134L9.48837 70.5116L12.3626 56.1403C9.58947 51.4019 8 45.8866 8 40C8 22.3269 22.3269 8 40 8C57.6731 8 72 22.3269 72 40C72 57.6731 57.6731 72 40 72C33.6187 72 27.6737 70.1322 22.6819 66.9134Z" fill="#191919"/>
<path fill-rule="evenodd" clip-rule="evenodd" d="M39.2473 15.4419H42.8389C49.4266 16.0559 55.6704 19.7214 59.1764 25.3634C64.2416 33.0686 63.5415 44.0767 57.3897 50.9776C55.6832 52.9669 52.1894 52.4634 51.1459 50.0509C49.4203 46.2866 48.0577 42.3638 46.4368 38.5575C44.9021 42.2347 43.539 45.9926 41.9484 49.6512C41.2552 51.6043 38.9034 52.8626 36.9513 51.96C35.4718 51.4071 34.778 49.8909 34.2193 48.5343C32.0333 43.0268 29.7926 37.5384 27.5762 32.0372C29.3689 32.0309 31.1615 32.0372 32.9604 32.0309C34.7531 36.4576 36.5339 40.8966 38.3388 45.3169C39.6896 41.9954 41.0096 38.6617 42.3296 35.3279C42.925 33.8299 43.7049 32.1478 45.381 31.638C47.2284 30.9443 49.2304 32.2584 49.9301 33.9649C51.7046 37.9802 53.1841 42.1246 54.9092 46.1585C56.6528 43.1863 57.7517 39.7914 57.5619 36.3104C57.3774 28.6604 51.1767 21.6857 43.5943 20.6299C34.575 19.2668 25.3903 25.4495 22.7933 34.1063C20.2453 41.7684 23.1432 50.7447 29.59 55.5702C34.2496 59.3212 40.6534 60.5311 46.3879 58.8667C46.3815 60.5796 46.3752 62.2929 46.3815 63.9999C45.3071 64.1898 44.2386 64.3923 43.1642 64.5582H39.4929C33.3103 63.9691 27.3306 61.1505 23.217 56.4542C19.5579 52.4576 17.5011 47.2079 16.9302 41.8545V38.3363C17.4336 32.9091 19.5271 27.5861 23.2234 23.5341C27.2812 18.8984 33.1694 16.1234 39.2473 15.4419Z" fill="white"/>
</svg>

<svg xmlns="http://www.w3.org/2000/svg" width="80" height="80" fill="none" viewBox="0 0 80 80"><path fill="#191919" fill-rule="evenodd" d="M22.682 66.913 9.488 70.512l2.875-14.372A31.85 31.85 0 0 1 8 40C8 22.327 22.327 8 40 8s32 14.327 32 32-14.327 32-32 32a31.85 31.85 0 0 1-17.318-5.087" clip-rule="evenodd"/><path fill="#fff" fill-rule="evenodd" d="M39.247 15.442h3.592c6.588.614 12.831 4.28 16.337 9.921 5.066 7.706 4.365 18.714-1.786 25.615-1.707 1.989-5.2 1.485-6.244-.927-1.726-3.764-3.088-7.687-4.71-11.494-1.534 3.678-2.897 7.436-4.488 11.094-.693 1.953-3.045 3.212-4.997 2.309-1.48-.553-2.173-2.07-2.732-3.426-2.186-5.507-4.426-10.996-6.643-16.497 1.793-.006 3.585 0 5.384-.006 1.793 4.427 3.574 8.866 5.379 13.286 1.35-3.322 2.67-6.655 3.99-9.99.596-1.497 1.376-3.18 3.052-3.689 1.847-.694 3.85.62 4.55 2.327 1.774 4.015 3.253 8.16 4.978 12.193 1.744-2.972 2.843-6.367 2.653-9.848-.185-7.65-6.385-14.624-13.968-15.68-9.019-1.363-18.204 4.82-20.8 13.476-2.549 7.662.35 16.639 6.796 21.464 4.66 3.751 11.063 4.961 16.798 3.297-.006 1.713-.013 3.426-.006 5.133-1.075.19-2.143.392-3.218.558h-3.671c-6.183-.589-12.162-3.408-16.276-8.104-3.66-3.996-5.716-9.246-6.287-14.6v-3.518c.504-5.427 2.597-10.75 6.293-14.802 4.058-4.636 9.946-7.41 16.024-8.092" clip-rule="evenodd"/></svg>
